X:1
T:Title
%%score { 1 | 2 }
L:1/8
M:4/4
K:Ab
V:1 treble nm="Grand Piano"
V:2 bass 
V:1
 z4 z2 z[Q:1/4=86] [CE] | [CE][CF][CG][CA] [Fd][Ec][EB][EA] | [FB][FA][EG][DF] [CE]3 [B,D] | %3
 [A,C][CE][EA]B c[EA][Ed][Ec] | [=DB][DF][DB][Dc] B3 E | [Ec][Ec][DB][CA] [Ec][Ec][_GB][GA] | %6
 [Fd][DF][FA][FB] [=Ec]3 [Ec] |[M:17/16] [FB][FB][F_c][Fc]=ce3/2A[A_c] | %8
[M:7/8] [Ac]>[Ac][DGB] [DEB] [CEA]3 |[M:1/8] [CE] |[M:4/4] [Ec][Ac][Gc][Fc] [Ec][DB][CA][Ec] | %11
 [Ae][Be][ce]A G3 G | [Bd][Ad][Gd][Fd] dBGE | [EA][EA][EA]B c3 [Ec] | [Ae][Be][ce][Be] ecBc | %15
 [Fd][DF][FA][FB] [=Ec]3 [Ec] |[M:17/16] [FB][FB][F_c][Fc]=ce3/2A[A_c] | %17
[M:7/8] [Ac]>[Ac][DGB] [DEB] [CEA]3 |] %18
V:2
 z4 z2 z [A,,A,] | [A,,A,][A,,A,][A,,A,][A,,A,] [A,,A,][A,,A,][B,,G,][C,A,] | %2
 [D,D][D,D][D,D][D,A,] [A,,A,]3 [A,,E,] | [A,,E,][A,,A,][C,A,][E,G,E] [A,E][C,A,][B,,G,][A,,A,] | %4
 [B,,A,][B,,A,][B,,A,][B,,A,] [E,G,E]3 [E,G,] | %5
 [A,,A,][A,,A,][A,,E,][A,,E,] [A,,A,][A,,A,][C,A,][C,A,] | %6
 [D,A,][D,A,][D,A,][D,F,] [C,G,]3 [C,G,] | %7
[M:17/16] [D,F,][D,A,][=D,A,][D,A,][E,A,E][E,CE]3/2[F,C][=E,=D] |[M:7/8] [E,E]>[E,E]E, E, A,,3 | %9
[M:1/8] [A,,A,] |[M:4/4] [A,,A,][A,,A,][A,,A,][A,,A,] [A,,A,][A,,A,][A,,E,][A,,A,] | %11
 [A,C][A,D][A,E][A,CE] [B,DE]3 [B,DE] | [E,G,][E,C][E,B,][E,A,] [E,G,E][E,G,E][E,B,E][D,G,] | %13
 [C,A,][C,A,][C,A,][E,G,E] [A,E]3 [A,,A,] | [A,C][A,D][A,E][A,D] [A,CA][A,E][A,_G][A,G] | %15
 [D,A,][D,A,][D,A,][D,F,] [C,G,]3 [C,G,] | %16
[M:17/16] [D,F,][D,A,][=D,A,][D,A,][E,A,E][E,CE]3/2[F,C][=E,=D] |[M:7/8] [E,E]>[E,E]E, E, A,,3 |] %18

